img/icons/social/vk.svg

<svg width="16" height="16" viewBox="0 0 16 16" fill="none" xmlns="http://www.w3.org/2000/svg">
<path d="M15.9151 12.027C15.8955 11.9805 15.8775 11.943 15.8612 11.9126C15.5836 11.3653 15.0529 10.6929 14.2692 9.89534L14.2529 9.87746L14.2447 9.86852L14.2365 9.85958H14.2284C13.8724 9.4876 13.6471 9.23903 13.554 9.11206C13.3809 8.86885 13.3434 8.62206 13.4365 8.37348C13.5034 8.18571 13.7532 7.78691 14.1859 7.17888C14.4145 6.85699 14.5941 6.59768 14.728 6.40275C15.6897 5.00429 16.1061 4.11013 15.9771 3.72027L15.9281 3.62907C15.8955 3.57363 15.8089 3.52356 15.6701 3.47885C15.5314 3.43235 15.3534 3.4252 15.1362 3.4556L12.7376 3.47349C12.6984 3.45918 12.6429 3.45918 12.5711 3.47885C12.4992 3.49673 12.4633 3.50568 12.4633 3.50568L12.4208 3.52892L12.3882 3.55575C12.3604 3.57363 12.3294 3.60582 12.2967 3.65232C12.2641 3.69703 12.2363 3.75068 12.2135 3.81148C11.9522 4.54827 11.6551 5.2314 11.322 5.86447C11.1162 6.2418 10.9284 6.56907 10.7554 6.84626C10.5839 7.12345 10.4386 7.32731 10.3227 7.45786C10.2067 7.58841 10.1006 7.69392 10.0059 7.77261C9.9112 7.85129 9.83936 7.88527 9.78874 7.87275C9.73812 7.86023 9.69077 7.84772 9.64669 7.83699C9.56831 7.78155 9.50626 7.70823 9.45891 7.61345C9.41156 7.51866 9.3789 7.40064 9.36258 7.25757C9.34625 7.1145 9.33645 6.99111 9.33319 6.88739C9.32992 6.78367 9.33155 6.63702 9.33808 6.44925C9.34461 6.26148 9.34625 6.13272 9.34625 6.06655C9.34625 5.83586 9.35115 5.5837 9.35931 5.31367C9.36747 5.04363 9.37401 4.82903 9.38054 4.66987C9.38544 4.5125 9.3887 4.3444 9.3887 4.16735C9.3887 3.99031 9.3789 3.85261 9.35931 3.75246C9.33972 3.65232 9.31033 3.55396 9.27277 3.46097C9.23358 3.36619 9.17643 3.29287 9.10133 3.24279C9.02622 3.19093 8.93315 3.1498 8.82211 3.1194C8.52821 3.04608 8.15266 3.00673 7.6971 3.00137C6.66353 2.98885 6.0006 3.06217 5.7067 3.22133C5.59077 3.2875 5.48463 3.3787 5.38993 3.49495C5.29033 3.62907 5.27563 3.70239 5.34748 3.71312C5.68057 3.76856 5.91733 3.89911 6.05612 4.10476L6.10674 4.21385C6.14593 4.29254 6.18511 4.43381 6.22267 4.63411C6.26186 4.8344 6.28635 5.05615 6.29778 5.29936C6.32553 5.74286 6.32553 6.12378 6.29778 6.44031C6.27002 6.75684 6.24389 7.00363 6.2194 7.17888C6.19491 7.35593 6.15735 7.49899 6.10674 7.60808C6.05612 7.71717 6.02346 7.78512 6.00714 7.80837C5.99081 7.83341 5.97611 7.84772 5.96631 7.85308C5.89447 7.88348 5.81936 7.89958 5.74099 7.89958C5.66261 7.89958 5.56954 7.85666 5.45851 7.77261C5.34748 7.68677 5.23155 7.57053 5.11235 7.4221C4.99316 7.27366 4.85763 7.06443 4.70741 6.79618C4.55719 6.52794 4.40208 6.2114 4.24043 5.84659L4.10654 5.58191C4.02326 5.41202 3.90896 5.16345 3.76528 4.83797C3.62159 4.5125 3.4926 4.19776 3.38156 3.89374C3.33748 3.76677 3.27053 3.66841 3.18236 3.60224L3.13991 3.57542C3.11215 3.55038 3.06806 3.52535 3.00602 3.49852C2.9456 3.4717 2.88029 3.45203 2.81498 3.43951L0.532298 3.45739C0.298806 3.45739 0.140422 3.51462 0.0571486 3.63086L0.0244923 3.6863C0.00816409 3.7167 0 3.76498 0 3.83294C0 3.89911 0.0163282 3.98137 0.0506173 4.07973C0.383712 4.93812 0.746198 5.76432 1.13807 6.56191C1.52995 7.3595 1.86958 8.00151 2.15858 8.48793C2.44759 8.97436 2.7415 9.43395 3.04194 9.86494C3.34238 10.2977 3.53995 10.5731 3.63792 10.6947C3.73589 10.8163 3.811 10.9075 3.86651 10.9683L4.07551 11.1865C4.2094 11.3332 4.40534 11.5066 4.66333 11.7105C4.92131 11.9144 5.20705 12.1146 5.52219 12.3132C5.83569 12.5099 6.20144 12.6726 6.61781 12.796C7.03418 12.9212 7.43912 12.9713 7.83426 12.9462H8.79272C8.98703 12.9283 9.13398 12.8604 9.23358 12.7459L9.26624 12.6994C9.2891 12.6637 9.30869 12.6064 9.32829 12.5313C9.34788 12.4544 9.35768 12.3722 9.35768 12.281C9.35278 12.0199 9.37074 11.7838 9.41156 11.5746C9.45238 11.3653 9.49973 11.2062 9.55362 11.1007C9.60587 10.9934 9.66628 10.904 9.73323 10.8324C9.80017 10.7591 9.84752 10.7144 9.87528 10.7001C9.90304 10.684 9.92426 10.675 9.94223 10.6679C10.0761 10.6196 10.2329 10.6661 10.4125 10.8092C10.5937 10.9522 10.7619 11.1293 10.9203 11.3385C11.0787 11.5477 11.2681 11.7838 11.4901 12.0449C11.7122 12.306 11.9065 12.5009 12.0731 12.6297L12.2396 12.7388C12.3506 12.8121 12.496 12.8783 12.6723 12.9391C12.8503 12.9999 13.0054 13.016 13.1393 12.9838L15.2717 12.948C15.4824 12.948 15.6473 12.9104 15.7632 12.8336C15.8792 12.7567 15.9494 12.6744 15.9722 12.5832C15.9951 12.492 15.9951 12.3883 15.9771 12.272C15.9543 12.154 15.9347 12.0717 15.9151 12.027Z" fill="#242424"/>
</svg>

<svg xmlns="http://www.w3.org/2000/svg" width="16" height="16" fill="none"><path fill="#fff" d="M15.92 12.03a8.93 8.93 0 0 0-1.65-2.13l-.02-.02v-.01l-.01-.01h-.01a10.1 10.1 0 0 1-.68-.75.76.76 0 0 1-.11-.74c.06-.18.31-.58.75-1.2l.54-.77c.96-1.4 1.38-2.29 1.25-2.68l-.05-.1c-.03-.05-.12-.1-.26-.14a1.19 1.19 0 0 0-.53-.02l-2.4.01a.28.28 0 0 0-.17 0l-.1.04-.05.02-.03.03a.36.36 0 0 0-.1.1.67.67 0 0 0-.08.15 15.6 15.6 0 0 1-1.45 3.04 4.66 4.66 0 0 1-.75.92c-.1.08-.17.12-.22.1l-.14-.03a.59.59 0 0 1-.2-.23c-.04-.1-.07-.2-.09-.35a4.6 4.6 0 0 1-.02-.81v-.38a25.24 25.24 0 0 1 .04-1.4 16.12 16.12 0 0 0-.02-.92 1.6 1.6 0 0 0-.09-.29.47.47 0 0 0-.17-.22.91.91 0 0 0-.28-.12C8.52 3.05 8.15 3 7.7 3a4.98 4.98 0 0 0-2 .22c-.1.07-.22.16-.31.27-.1.14-.11.21-.04.22.33.06.57.19.7.4l.06.1a4.6 4.6 0 0 1 .2 1.09 7.77 7.77 0 0 1-.2 2.3l-.1.2a.14.14 0 0 1-.04.05.57.57 0 0 1-.23.05c-.08 0-.17-.04-.28-.13-.11-.08-.23-.2-.35-.35a4.69 4.69 0 0 1-.4-.62c-.15-.27-.3-.59-.47-.95l-.13-.27a21.87 21.87 0 0 1-.73-1.69.6.6 0 0 0-.2-.29l-.04-.02a.88.88 0 0 0-.32-.14l-2.29.02c-.23 0-.39.05-.47.17l-.04.06a.33.33 0 0 0-.02.14c0 .07.02.15.05.25a31.3 31.3 0 0 0 3 5.78 18.87 18.87 0 0 0 .82 1.1l.2.23a9.87 9.87 0 0 0 1.45 1.13 4.41 4.41 0 0 0 2.31.63h.96c.2-.02.34-.09.44-.2l.04-.05.06-.17a1 1 0 0 0 .03-.25c0-.26.01-.5.05-.7.04-.21.09-.37.14-.48a1.09 1.09 0 0 1 .33-.4.47.47 0 0 1 .06-.03c.14-.05.3 0 .47.14.18.14.35.32.51.53l.57.7c.22.27.42.46.58.59l.17.1c.11.08.26.15.43.2.18.07.34.09.47.05l2.13-.03c.21 0 .38-.04.5-.12.1-.07.18-.16.2-.25.03-.09.03-.2 0-.3l-.05-.25Z"/></svg>
